svgs/1F642.svg

<svg xmlns="http://www.w3.org/2000/svg" xmlns:xlink="http://www.w3.org/1999/xlink" preserveAspectRatio="none" viewBox="0 0 72 72"><defs><path id="a" fill="#FCC21B" d="M127.65 93.35q0-27-8.5-47.05-15.6-36.65-55.3-36.65Q24.2 9.65 8.6 46.3.1 66.35.1 93.35q0 10.4 18.7 17.7 18.65 7.35 45.05 7.35 26.45 0 45.1-7.35 18.7-7.3 18.7-17.7z"/><path id="b" fill="#2F2F2F" d="M86.4 86.65q.95-.95.9-2.3 0-1.35-.95-2.3-1-.95-2.3-.95-1.35.05-2.3 1-1.8 1.75-4.8 3.35-6 3.15-13.1 3.15-7.05 0-13.05-3.15-4.65-3.2-4.8-3.35-.95-.95-2.3-1-1.3 0-2.3.95-.95.95-1 2.3 0 1.3.95 2.3.2.15 6.1 4.35 7.55 4.1 16.4 4.1 8.85 0 16.45-4.1 3.85-2.1 6.1-4.35z"/><path id="c" fill="#2F2F2F" d="M36.05 51.5q-2.35 2.9-2.3 6.9.05 4 2.45 6.85 2.45 2.8 5.8 2.75 3.35 0 5.7-2.85 2.35-2.9 2.3-6.9-.05-4-2.45-6.85-2.4-2.85-5.75-2.8-3.35.05-5.75 2.9z"/><path id="d" fill="#2F2F2F" d="M94.2 58.3q-.05-4-2.4-6.85-2.4-2.85-5.75-2.8-3.35 0-5.75 2.85t-2.4 6.85q.05 4 2.45 6.85 2.4 2.85 5.75 2.8 3.35 0 5.7-2.85 2.4-2.85 2.4-6.85z"/></defs><use transform="scale(.5625)" xlink:href="#a"/><use transform="translate(0 -2.5) scale(.5625)" xlink:href="#b"/><use transform="translate(0 -2.5) scale(.5625)" xlink:href="#c"/><use transform="translate(0 -2.5) scale(.5625)" xlink:href="#d"/></svg>

<svg xmlns="http://www.w3.org/2000/svg" version="1.1" xmlns:xlink="http://www.w3.org/1999/xlink" preserveAspectRatio="none" x="0px" y="0px" width="72px" height="72px" viewBox="0 0 72 72">
<defs>
<g id="Layer0_0_FILL">
<path fill="#FCC21B" stroke="none" d="
M 127.65 93.35
Q 127.65 66.35 119.15 46.3 103.55 9.65 63.85 9.65 24.2 9.65 8.6 46.3 0.1 66.35 0.1 93.35 0.1 103.75 18.8 111.05 37.45 118.4 63.85 118.4 90.3 118.4 108.95 111.05 127.65 103.75 127.65 93.35 Z"/>
</g>

<g id="Layer0_1_FILL">
<path fill="#2F2F2F" stroke="none" d="
M 86.4 86.65
Q 87.35 85.7 87.3 84.35 87.3 83 86.35 82.05 85.35 81.1 84.05 81.1 82.7 81.15 81.75 82.1 79.95 83.85 76.95 85.45 70.95 88.6 63.85 88.6 56.8 88.6 50.8 85.45 46.15 82.25 46 82.1 45.05 81.15 43.7 81.1 42.4 81.1 41.4 82.05 40.45 83 40.4 84.35 40.4 85.65 41.35 86.65 41.55 86.8 47.45 91 55 95.1 63.85 95.1 72.7 95.1 80.3 91 84.15 88.9 86.4 86.65 Z"/>
</g>

<g id="Layer0_2_MEMBER_0_FILL">
<path fill="#2F2F2F" stroke="none" d="
M 36.05 51.5
Q 33.7 54.4 33.75 58.4 33.8 62.4 36.2 65.25 38.65 68.05 42 68 45.35 68 47.7 65.15 50.05 62.25 50 58.25 49.95 54.25 47.55 51.4 45.15 48.55 41.8 48.6 38.45 48.65 36.05 51.5 Z"/>
</g>

<g id="Layer0_2_MEMBER_1_FILL">
<path fill="#2F2F2F" stroke="none" d="
M 94.2 58.3
Q 94.15 54.3 91.8 51.45 89.4 48.6 86.05 48.65 82.7 48.65 80.3 51.5 77.9 54.35 77.9 58.35 77.95 62.35 80.35 65.2 82.75 68.05 86.1 68 89.45 68 91.8 65.15 94.2 62.3 94.2 58.3 Z"/>
</g>
</defs>

<g id="Layer_1">
<g transform="matrix( 0.5625, 0, 0, 0.5625, 0,0) ">
<use xlink:href="#Layer0_0_FILL"/>
</g>

<g transform="matrix( 0.5625, 0, 0, 0.5625, 0,-2.5) ">
<use xlink:href="#Layer0_1_FILL"/>
</g>

<g transform="matrix( 0.5625, 0, 0, 0.5625, 0,-2.5) ">
<use xlink:href="#Layer0_2_MEMBER_0_FILL"/>
</g>

<g transform="matrix( 0.5625, 0, 0, 0.5625, 0,-2.5) ">
<use xlink:href="#Layer0_2_MEMBER_1_FILL"/>
</g>
</g>
</svg>
